icons/features/f-8.svg

<svg width="576" height="512" viewBox="0 0 576 512" fill="none" xmlns="http://www.w3.org/2000/svg">
<g clip-path="url(#clip0)">
<path d="M271.06 144.3L325.33 158.6C327.173 159.031 328.822 160.059 330.021 161.523C331.22 162.988 331.902 164.808 331.96 166.7C331.96 171.3 327.87 175.1 322.84 175.1H287.24C283.404 175.089 279.605 174.342 276.05 172.9C270.81 170.7 264.77 171.2 260.75 174.9L241.75 192.4C240.871 193.169 240.113 194.066 239.5 195.06C238.716 196.347 238.194 197.776 237.964 199.265C237.735 200.755 237.802 202.275 238.163 203.738C238.523 205.201 239.17 206.578 240.066 207.79C240.961 209.002 242.087 210.025 243.38 210.8C253.902 217.115 265.683 221.041 277.89 222.3V240C277.89 248.8 285.72 256 295.26 256H312.63C322.18 256 330.01 248.8 330.01 240V222.4C362.94 218.8 387.85 191.4 383.51 159.4C380.36 136.4 361.05 118.1 336.95 111.7L282.68 97.4C280.837 96.969 279.188 95.9413 277.989 94.4765C276.79 93.0117 276.108 91.192 276.05 89.3C276.05 84.7 280.14 80.9 285.17 80.9H320.77C324.62 80.906 328.433 81.6529 332 83.1C337.23 85.3 343.28 84.8 347.3 81.1L366.3 63.6C367.15 62.8472 367.881 61.9707 368.47 61C369.261 59.7137 369.789 58.2835 370.025 56.7918C370.26 55.3001 370.197 53.7767 369.84 52.3094C369.483 50.8421 368.839 49.4602 367.944 48.2433C367.05 47.0265 365.924 45.9989 364.63 45.22C354.104 38.9053 342.32 34.9795 330.11 33.72V16C330.11 7.2 322.29 0 312.74 0H295.37C285.82 0 278 7.2 278 16V33.6C245.11 37.2 220.15 64.6 224.49 96.6C227.63 119.6 247 137.9 271.06 144.3ZM565.27 328.1C553.47 317.4 535.07 318.1 522.67 328.1L430.27 402C418.928 411.099 404.811 416.04 390.27 416H272C267.757 416 263.687 414.314 260.686 411.314C257.686 408.313 256 404.243 256 400C256 395.757 257.686 391.687 260.686 388.686C263.687 385.686 267.757 384 272 384H350.29C366.19 384 381 373.1 383.54 357.4C383.853 355.597 384.007 353.77 384 351.94C383.984 343.463 380.606 335.34 374.606 329.351C368.607 323.363 360.477 320 352 320H192C165.016 320.007 138.855 329.289 117.9 346.29L71.4 384H16C11.7565 384 7.68687 385.686 4.68629 388.686C1.68571 391.687 0 395.757 0 400L0 496C0 500.243 1.68571 504.313 4.68629 507.314C7.68687 510.314 11.7565 512 16 512H372.77C387.306 512.011 401.413 507.074 412.77 498L564 377C567.638 374.09 570.597 370.422 572.67 366.25C574.742 362.078 575.88 357.504 576.001 352.847C576.123 348.191 575.227 343.563 573.375 339.289C571.523 335.015 568.761 331.196 565.28 328.1H565.27Z" fill="white"/>
</g>
<defs>
<clipPath id="clip0">
<rect width="576" height="512" fill="white"/>
</clipPath>
</defs>
</svg>

<svg aria-hidden="true" focusable="false" data-prefix="fas" data-icon="hand-holding-usd" class="svg-inline--fa fa-hand-holding-usd fa-w-18" role="img" xmlns="http://www.w3.org/2000/svg" viewBox="0 0 576 512"><path fill="currentColor" d="M271.06,144.3l54.27,14.3a8.59,8.59,0,0,1,6.63,8.1c0,4.6-4.09,8.4-9.12,8.4h-35.6a30,30,0,0,1-11.19-2.2c-5.24-2.2-11.28-1.7-15.3,2l-19,17.5a11.68,11.68,0,0,0-2.25,2.66,11.42,11.42,0,0,0,3.88,15.74,83.77,83.77,0,0,0,34.51,11.5V240c0,8.8,7.83,16,17.37,16h17.37c9.55,0,17.38-7.2,17.38-16V222.4c32.93-3.6,57.84-31,53.5-63-3.15-23-22.46-41.3-46.56-47.7L282.68,97.4a8.59,8.59,0,0,1-6.63-8.1c0-4.6,4.09-8.4,9.12-8.4h35.6A30,30,0,0,1,332,83.1c5.23,2.2,11.28,1.7,15.3-2l19-17.5A11.31,11.31,0,0,0,368.47,61a11.43,11.43,0,0,0-3.84-15.78,83.82,83.82,0,0,0-34.52-11.5V16c0-8.8-7.82-16-17.37-16H295.37C285.82,0,278,7.2,278,16V33.6c-32.89,3.6-57.85,31-53.51,63C227.63,119.6,247,137.9,271.06,144.3ZM565.27,328.1c-11.8-10.7-30.2-10-42.6,0L430.27,402a63.64,63.64,0,0,1-40,14H272a16,16,0,0,1,0-32h78.29c15.9,0,30.71-10.9,33.25-26.6a31.2,31.2,0,0,0,.46-5.46A32,32,0,0,0,352,320H192a117.66,117.66,0,0,0-74.1,26.29L71.4,384H16A16,16,0,0,0,0,400v96a16,16,0,0,0,16,16H372.77a64,64,0,0,0,40-14L564,377a32,32,0,0,0,1.28-48.9Z"></path></svg>
